src/assets/icons/icons-origin/MaximizeOutline.svg

<svg width="24" height="24" viewBox="0 0 24 24" xmlns="http://www.w3.org/2000/svg">
  <path d="M20.71 19.29L17.31 15.9C18.407 14.5025 19.0022 12.7767 19 11C19 9.41775 18.5308 7.87103 17.6518 6.55544C16.7727 5.23985 15.5233 4.21447 14.0615 3.60897C12.5997 3.00347 10.9911 2.84504 9.43928 3.15372C7.88743 3.4624 6.46197 4.22433 5.34315 5.34315C4.22433 6.46197 3.4624 7.88743 3.15372 9.43928C2.84504 10.9911 3.00347 12.5997 3.60897 14.0615C4.21447 15.5233 5.23985 16.7727 6.55544 17.6518C7.87103 18.5308 9.41775 19 11 19C12.7767 19.0022 14.5025 18.407 15.9 17.31L19.29 20.71C19.383 20.8037 19.4936 20.8781 19.6154 20.9289C19.7373 20.9797 19.868 21.0058 20 21.0058C20.132 21.0058 20.2627 20.9797 20.3846 20.9289C20.5064 20.8781 20.617 20.8037 20.71 20.71C20.8037 20.617 20.8781 20.5064 20.9289 20.3846C20.9797 20.2627 21.0058 20.132 21.0058 20C21.0058 19.868 20.9797 19.7373 20.9289 19.6154C20.8781 19.4936 20.8037 19.383 20.71 19.29ZM5 11C5 9.81332 5.3519 8.65328 6.01119 7.66658C6.67047 6.67989 7.60755 5.91085 8.7039 5.45673C9.80026 5.0026 11.0067 4.88378 12.1705 5.11529C13.3344 5.3468 14.4035 5.91825 15.2426 6.75736C16.0818 7.59648 16.6532 8.66558 16.8847 9.82946C17.1162 10.9933 16.9974 12.1997 16.5433 13.2961C16.0892 14.3925 15.3201 15.3295 14.3334 15.9888C13.3467 16.6481 12.1867 17 11 17C9.4087 17 7.88258 16.3679 6.75736 15.2426C5.63214 14.1174 5 12.5913 5 11Z" fill="currentColor" />
  <path d="M13 10H12V9C12 8.73478 11.8946 8.48043 11.7071 8.29289C11.5196 8.10536 11.2652 8 11 8C10.7348 8 10.4804 8.10536 10.2929 8.29289C10.1054 8.48043 10 8.73478 10 9V10H9C8.73478 10 8.48043 10.1054 8.29289 10.2929C8.10536 10.4804 8 10.7348 8 11C8 11.2652 8.10536 11.5196 8.29289 11.7071C8.48043 11.8946 8.73478 12 9 12H10V13C10 13.2652 10.1054 13.5196 10.2929 13.7071C10.4804 13.8946 10.7348 14 11 14C11.2652 14 11.5196 13.8946 11.7071 13.7071C11.8946 13.5196 12 13.2652 12 13V12H13C13.2652 12 13.5196 11.8946 13.7071 11.7071C13.8946 11.5196 14 11.2652 14 11C14 10.7348 13.8946 10.4804 13.7071 10.2929C13.5196 10.1054 13.2652 10 13 10Z" fill="currentColor" />
</svg>

<svg width="24" height="24" viewBox="0 0 24 24" xmlns="http://www.w3.org/2000/svg">
  <path d="m20.71 19.29-3.4-3.39A7.92 7.92 0 0 0 19 11a8 8 0 1 0-8 8 7.92 7.92 0 0 0 4.9-1.69l3.39 3.4a1.002 1.002 0 0 0 1.639-.325 1 1 0 0 0-.219-1.095ZM5 11a6 6 0 1 1 12 0 6 6 0 0 1-12 0Z" fill="currentColor"/>
  <path d="M13 10h-1V9a1 1 0 0 0-2 0v1H9a1 1 0 0 0 0 2h1v1a1 1 0 0 0 2 0v-1h1a1 1 0 0 0 0-2Z" fill="currentColor"/>
</svg>
